X:1

T: The Whole Chicken in the Soup

L:1/8

M: 6/8

K: G

G2E D2E | G2A B2e | d2B A2G | E2A ABA |

G2E D2E | G2A B2e | d2B ABA | G3 G3 :||

g2f e2d | e2d B2e | d2B A2G | E2A ABA |

1 g2f e2d | e2d B2e | d2B ABA | G3 G3 :|

2 G2E D2E | G2A B2e | d2B ABA | G3 G3 ||

 

WHOLE HEN AND THE BROTH, THE. See "Kelly's Goat."

 

WHO'LL BE KING BUT CHARLIE. See "Wha'll (Who'll) Be King But Charlie." AKA and see "Behind the Bush in the Garden [1]."

 

WHO'LL BUY MY BESOMS? AKA and see "The Merry Merchant [2]." Irish, Air (3/4 time). G Major. Standard tuning. AB. Stanford/Petrie (Complete Collection), 1905; No. 857-858, pg. 214.

